svgs/sharp-light/city.svg

<svg xmlns="http://www.w3.org/2000/svg" viewBox="0 0 640 512"><!--! Font Awesome Pro 6.6.0 by @fontawesome - https://fontawesome.com License - https://fontawesome.com/license (Commercial License) Copyright 2024 Fonticons, Inc. --><path d="M96 16L96 0 64 0l0 16 0 48L16 64 0 64 0 80 0 496l0 16 16 0 176 0 0-32L32 480 32 96l160 0 0-16 0-16 0-48 0-16L160 0l0 16 0 48L96 64l0-48zM544 160l-32 0 0-32 0-96 0-32L480 0 256 0 224 0l0 32 0 448 0 32 32 0 256 0 96 0 32 0 0-32 0-288 0-32-32 0-64 0zM480 32l0 128 0 32 32 0 96 0 0 288-96 0-256 0 0-448 224 0zM320 416l16 0 64 0 16 0 0-16 0-64 0-16-16 0-64 0-16 0 0 16 0 64 0 16zm32-32l0-32 32 0 0 32-32 0zM336 64l-16 0 0 16 0 64 0 16 16 0 64 0 16 0 0-16 0-64 0-16-16 0-64 0zm16 64l0-32 32 0 0 32-32 0zM320 288l16 0 64 0 16 0 0-16 0-64 0-16-16 0-64 0-16 0 0 16 0 64 0 16zm32-32l0-32 32 0 0 32-32 0zM496 448l64 0 16 0 0-16 0-64 0-16-16 0-64 0-16 0 0 16 0 64 0 16 16 0zm48-64l0 32-32 0 0-32 32 0zm-64-64l16 0 64 0 16 0 0-16 0-64 0-16-16 0-64 0-16 0 0 16 0 64 0 16zm32-32l0-32 32 0 0 32-32 0zM80 352l64 0 16 0 0-16 0-64 0-16-16 0-64 0-16 0 0 16 0 64 0 16 16 0zm16-64l32 0 0 32-32 0 0-32zM64 224l16 0 64 0 16 0 0-16 0-64 0-16-16 0-64 0-16 0 0 16 0 64 0 16zm32-32l0-32 32 0 0 32-32 0z"/></svg>

<svg xmlns="http://www.w3.org/2000/svg" viewBox="0 0 640 512"><!--! Font Awesome Pro 6.4.0 by @fontawesome - https://fontawesome.com License - https://fontawesome.com/license (Commercial License) Copyright 2023 Fonticons, Inc. --><path d="M96 16V0H64V16 64H16 0V80 496v16H16 192V480H32V96H192V80 64 16 0H160V16 64H96V16zM544 160H512V128 32 0H480 256 224V32 480v32h32H512h96 32V480 192 160H608 544zM480 32V160v32h32 96V480H512 256V32H480zM320 416h16 64 16V400 336 320H400 336 320v16 64 16zm32-32V352h32v32H352zM336 64H320V80v64 16h16 64 16V144 80 64H400 336zm16 64V96h32v32H352zM320 288h16 64 16V272 208 192H400 336 320v16 64 16zm32-32V224h32v32H352zM496 448h64 16V432 368 352H560 496 480v16 64 16h16zm48-64v32H512V384h32zm-64-64h16 64 16V304 240 224H560 496 480v16 64 16zm32-32V256h32v32H512zM80 352h64 16V336 272 256H144 80 64v16 64 16H80zm16-64h32v32H96V288zM64 224H80h64 16V208 144 128H144 80 64v16 64 16zm32-32V160h32v32H96z"/></svg>
